svg/运营管理.svg

<svg width="120" height="120" viewBox="0 0 120 120" fill="none" xmlns="http://www.w3.org/2000/svg"><g><path d="M0 30C0 13.4315 13.4315 0 30 0H90C106.569 0 120 13.4315 120 30V90C120 106.569 106.569 120 90 120H30C13.4315 120 0 106.569 0 90V30Z" fill="url(#paint1_linear_0_1)"/><g opacity="0.7"><path d="M60.0488 86.4214C53.2688 86.4214 47.1288 83.6214 42.7188 79.1214C42.1588 78.5514 41.3988 78.2014 40.5988 78.2014H40.4388C37.8088 78.2014 36.5188 81.3514 38.3588 83.2414C43.8588 88.9014 51.5488 92.4214 60.0488 92.4214C68.5488 92.4214 76.2388 88.9014 81.7388 83.2414C83.5688 81.3514 82.2888 78.2014 79.6588 78.2014H79.4988C78.6988 78.2014 77.9388 78.5514 77.3788 79.1214C72.9688 83.6214 66.8288 86.4214 60.0488 86.4214Z" fill="url(#paint2_linear_0_1)"/><path d="M86.0194 56.9214H86.1294C88.0894 56.9214 89.5494 55.0314 88.9594 53.1514C86.7894 46.1914 82.1794 40.2914 76.1194 36.4814C74.1794 35.2614 71.6494 36.7114 71.6494 39.0114V39.1314C71.6494 40.1214 72.1494 41.0614 72.9894 41.5914C77.7894 44.6214 81.4494 49.2914 83.1994 54.8114C83.5894 56.0514 84.7194 56.9214 86.0194 56.9214Z" fill="url(#paint3_linear_0_1)"/><path d="M48.5091 39.0914V38.9714C48.5091 36.6814 45.9891 35.2214 44.0491 36.4414C37.9491 40.2514 33.3091 46.1614 31.1291 53.1514C30.5491 55.0214 31.9991 56.9214 33.9591 56.9214H34.0691C35.3691 56.9214 36.4991 56.0614 36.8891 54.8114C38.6391 49.2814 42.3191 44.6014 47.1391 41.5714C47.9891 41.0314 48.5091 40.1014 48.5091 39.0914Z" fill="url(#paint4_linear_0_1)"/><path d="M34.01 59C36.4 59 38.68 59.94 40.37 61.64C42.06 63.32 43 65.62 43 68C43 70.38 42.06 72.67 40.36 74.36C38.68 76.05 36.39 77 34 77C31.61 77 29.33 76.06 27.64 74.36L27.33 74.04C25.83 72.39 25 70.23 25 68C25 65.62 25.94 63.33 27.64 61.64C29.32 59.95 31.61 59 34 59H34.01Z" fill="#38D165"/><path d="M60.04 26.5C62.43 26.5 64.71 27.45 66.41 29.14C68.1 30.82 69.04 33.11 69.04 35.5C69.04 37.89 68.1 40.17 66.4 41.86C64.72 43.55 62.43 44.5 60.04 44.5C57.65 44.5 55.37 43.56 53.68 41.86L53.37 41.54C51.87 39.89 51.04 37.74 51.04 35.5C51.04 33.11 51.98 30.83 53.68 29.14C55.36 27.45 57.65 26.5 60.04 26.5Z" fill="#38D165"/><path d="M87.01 59C89.4 59 91.68 59.94 93.37 61.64C95.06 63.32 96 65.62 96 68C96 70.38 95.06 72.67 93.36 74.36C91.68 76.05 89.39 77 87 77C84.61 77 82.33 76.06 80.64 74.36L80.33 74.04C78.83 72.39 78 70.24 78 68C78 65.61 78.94 63.33 80.64 61.64C82.32 59.95 84.61 59 87 59H87.01Z" fill="#38D165"/><path d="M34.01 59C36.4 59 38.68 59.94 40.37 61.64C42.06 63.32 43 65.62 43 68C43 70.38 42.06 72.67 40.36 74.36C38.68 76.05 36.39 77 34 77C31.61 77 29.33 76.06 27.64 74.36L27.33 74.04C25.83 72.39 25 70.23 25 68C25 65.62 25.94 63.33 27.64 61.64C29.32 59.95 31.61 59 34 59H34.01Z" stroke="url(#paint5_linear_0_1)"/><path d="M60.04 26.5C62.43 26.5 64.71 27.45 66.41 29.14C68.1 30.82 69.04 33.11 69.04 35.5C69.04 37.89 68.1 40.17 66.4 41.86C64.72 43.55 62.43 44.5 60.04 44.5C57.65 44.5 55.37 43.56 53.68 41.86L53.37 41.54C51.87 39.89 51.04 37.74 51.04 35.5C51.04 33.11 51.98 30.83 53.68 29.14C55.36 27.45 57.65 26.5 60.04 26.5Z" stroke="url(#paint6_linear_0_1)"/><path d="M87.01 59C89.4 59 91.68 59.94 93.37 61.64C95.06 63.32 96 65.62 96 68C96 70.38 95.06 72.67 93.36 74.36C91.68 76.05 89.39 77 87 77C84.61 77 82.33 76.06 80.64 74.36L80.33 74.04C78.83 72.39 78 70.24 78 68C78 65.61 78.94 63.33 80.64 61.64C82.32 59.95 84.61 59 87 59H87.01Z" stroke="url(#paint7_linear_0_1)"/><line x1="-20" y1="48.5" x2="80" y2="48.5" stroke="black"/></g></g><defs><linearGradient id="paint1_linear_0_1" x1="60" y1="1.51" x2="60" y2="121.36" gradientUnits="userSpaceOnUse"><stop stop-color="#333333"/><stop offset="1" stop-color="#111111"/></linearGradient><linearGradient id="paint2_linear_0_1" x1="60.0459" y1="36" x2="60.0459" y2="92.4214" gradientUnits="userSpaceOnUse"><stop stop-color="#E6E6E6"/><stop offset="1" stop-color="#C8E7C0"/></linearGradient><linearGradient id="paint3_linear_0_1" x1="60.0459" y1="36" x2="60.0459" y2="92.4214" gradientUnits="userSpaceOnUse"><stop stop-color="#E6E6E6"/><stop offset="1" stop-color="#C8E7C0"/></linearGradient><linearGradient id="paint4_linear_0_1" x1="60.0459" y1="36" x2="60.0459" y2="92.4214" gradientUnits="userSpaceOnUse"><stop stop-color="#E6E6E6"/><stop offset="1" stop-color="#C8E7C0"/></linearGradient><linearGradient id="paint5_linear_0_1" x1="60.5" y1="26.5" x2="60.5" y2="77" gradientUnits="userSpaceOnUse"><stop stop-color="white"/><stop offset="1" stop-color="#3CB660"/></linearGradient><linearGradient id="paint6_linear_0_1" x1="60.5" y1="26.5" x2="60.5" y2="77" gradientUnits="userSpaceOnUse"><stop stop-color="white"/><stop offset="1" stop-color="#3CB660"/></linearGradient><linearGradient id="paint7_linear_0_1" x1="60.5" y1="26.5" x2="60.5" y2="77" gradientUnits="userSpaceOnUse"><stop stop-color="white"/><stop offset="1" stop-color="#3CB660"/></linearGradient><clipPath id="clip0_0_1"></clipPath><clipPath id="clip1_0_1"></clipPath></defs></svg>

<svg fill="none" viewBox="0 0 120 120"><path fill="url(#a)" d="M0 30C0 13.432 13.432 0 30 0h60c16.569 0 30 13.432 30 30v60c0 16.569-13.431 30-30 30H30c-16.568 0-30-13.431-30-30z"/><g opacity=".7"><path fill="url(#b)" d="M60.049 86.421c-6.78 0-12.92-2.8-17.33-7.3-.56-.57-1.32-.92-2.12-.92h-.16c-2.63 0-3.92 3.15-2.08 5.04 5.5 5.66 13.19 9.18 21.69 9.18s16.19-3.52 21.69-9.18c1.83-1.89.55-5.04-2.08-5.04h-.16c-.8 0-1.56.35-2.12.92-4.41 4.5-10.55 7.3-17.33 7.3"/><path fill="url(#c)" d="M86.02 56.921h.11c1.96 0 3.42-1.89 2.83-3.77a30.43 30.43 0 0 0-12.84-16.67c-1.94-1.22-4.47.23-4.47 2.53v.12c0 .99.5 1.93 1.34 2.46 4.8 3.03 8.46 7.7 10.21 13.22.39 1.24 1.52 2.11 2.82 2.11"/><path fill="url(#d)" d="M48.51 39.091v-.12c0-2.29-2.52-3.75-4.46-2.53a30.42 30.42 0 0 0-12.92 16.71c-.58 1.87.87 3.77 2.83 3.77h.11c1.3 0 2.43-.86 2.82-2.11a24.35 24.35 0 0 1 10.25-13.24c.85-.54 1.37-1.47 1.37-2.48"/><path fill="#38D165" d="M34.01 59c2.39 0 4.67.94 6.36 2.64A8.97 8.97 0 0 1 43 68c0 2.38-.94 4.67-2.64 6.36A8.97 8.97 0 0 1 34 77c-2.39 0-4.67-.94-6.36-2.64l-.31-.32a8.99 8.99 0 0 1 .31-12.4A8.97 8.97 0 0 1 34 59z"/><path fill="#38D165" d="M60.04 26.5c2.39 0 4.67.95 6.37 2.64a8.96 8.96 0 0 1 2.63 6.36c0 2.39-.94 4.67-2.64 6.36a8.97 8.97 0 0 1-6.36 2.64c-2.39 0-4.67-.94-6.36-2.64l-.31-.32a8.97 8.97 0 0 1-2.33-6.04c0-2.39.94-4.67 2.64-6.36a8.97 8.97 0 0 1 6.36-2.64"/><path fill="#38D165" d="M87.01 59c2.39 0 4.67.94 6.36 2.64A8.97 8.97 0 0 1 96 68c0 2.38-.94 4.67-2.64 6.36A8.97 8.97 0 0 1 87 77c-2.39 0-4.67-.94-6.36-2.64l-.31-.32A8.97 8.97 0 0 1 78 68c0-2.39.94-4.67 2.64-6.36A8.97 8.97 0 0 1 87 59z"/><path stroke="url(#e)" d="M34.01 59c2.39 0 4.67.94 6.36 2.64A8.97 8.97 0 0 1 43 68c0 2.38-.94 4.67-2.64 6.36A8.97 8.97 0 0 1 34 77c-2.39 0-4.67-.94-6.36-2.64l-.31-.32a8.99 8.99 0 0 1 .31-12.4A8.97 8.97 0 0 1 34 59z"/><path stroke="url(#f)" d="M60.04 26.5c2.39 0 4.67.95 6.37 2.64a8.96 8.96 0 0 1 2.63 6.36c0 2.39-.94 4.67-2.64 6.36a8.97 8.97 0 0 1-6.36 2.64c-2.39 0-4.67-.94-6.36-2.64l-.31-.32a8.97 8.97 0 0 1-2.33-6.04c0-2.39.94-4.67 2.64-6.36a8.97 8.97 0 0 1 6.36-2.64Z"/><path stroke="url(#g)" d="M87.01 59c2.39 0 4.67.94 6.36 2.64A8.97 8.97 0 0 1 96 68c0 2.38-.94 4.67-2.64 6.36A8.97 8.97 0 0 1 87 77c-2.39 0-4.67-.94-6.36-2.64l-.31-.32A8.97 8.97 0 0 1 78 68c0-2.39.94-4.67 2.64-6.36A8.97 8.97 0 0 1 87 59z"/></g><defs><linearGradient id="a" x1="60" x2="60" y1="1.51" y2="121.36" gradientUnits="userSpaceOnUse"><stop stop-color="#333333"/><stop offset="1" stop-color="#111111"/></linearGradient><linearGradient id="b" x1="60.046" x2="60.046" y1="36" y2="92.421" gradientUnits="userSpaceOnUse"><stop stop-color="#E6E6E6"/><stop offset="1" stop-color="#C8E7C0"/></linearGradient><linearGradient id="c" x1="60.046" x2="60.046" y1="36" y2="92.421" gradientUnits="userSpaceOnUse"><stop stop-color="#E6E6E6"/><stop offset="1" stop-color="#C8E7C0"/></linearGradient><linearGradient id="d" x1="60.046" x2="60.046" y1="36" y2="92.421" gradientUnits="userSpaceOnUse"><stop stop-color="#E6E6E6"/><stop offset="1" stop-color="#C8E7C0"/></linearGradient><linearGradient id="e" x1="60.5" x2="60.5" y1="26.5" y2="77" gradientUnits="userSpaceOnUse"><stop stop-color="white"/><stop offset="1" stop-color="#3CB660"/></linearGradient><linearGradient id="f" x1="60.5" x2="60.5" y1="26.5" y2="77" gradientUnits="userSpaceOnUse"><stop stop-color="white"/><stop offset="1" stop-color="#3CB660"/></linearGradient><linearGradient id="g" x1="60.5" x2="60.5" y1="26.5" y2="77" gradientUnits="userSpaceOnUse"><stop stop-color="white"/><stop offset="1" stop-color="#3CB660"/></linearGradient></defs></svg>
